round/svg/shuffle.svg

<svg xmlns="http://www.w3.org/2000/svg" width="24" height="24"><path d="M10.59 9.17L6.12 4.7a.996.996 0 1 0-1.41 1.41l4.46 4.46 1.42-1.4zm4.76-4.32l1.19 1.19L4.7 17.88a.996.996 0 1 0 1.41 1.41L17.96 7.46l1.19 1.19a.5.5 0 0 0 .85-.36V4.5c0-.28-.22-.5-.5-.5h-3.79a.5.5 0 0 0-.36.85zm-.52 8.56l-1.41 1.41 3.13 3.13-1.2 1.2a.5.5 0 0 0 .36.85h3.79c.28 0 .5-.22.5-.5v-3.79c0-.45-.54-.67-.85-.35l-1.19 1.19-3.13-3.14z" fill="currentColor"/></svg>

<?xml version="1.0" encoding="utf-8"?>
<!-- Generator: Adobe Illustrator 19.1.0, SVG Export Plug-In . SVG Version: 6.00 Build 0)  -->
<svg version="1.1" xmlns="http://www.w3.org/2000/svg" xmlns:xlink="http://www.w3.org/1999/xlink" x="0px" y="0px" width="24px"
	 height="24px" viewBox="0 0 24 24" enable-background="new 0 0 24 24" xml:space="preserve">
<g id="Bounding_Boxes" display="none">
	<path display="inline" fill="none" d="M0,0h24v24H0V0z"/>
</g>
<g id="Rounded" fill="currentColor">
	<path d="M10.59,9.17L6.12,4.7c-0.39-0.39-1.02-0.39-1.41,0l0,0c-0.39,0.39-0.39,1.02,0,1.41l4.46,4.46L10.59,9.17z M15.35,4.85
		l1.19,1.19L4.7,17.88c-0.39,0.39-0.39,1.02,0,1.41h0c0.39,0.39,1.02,0.39,1.41,0L17.96,7.46l1.19,1.19C19.46,8.96,20,8.74,20,8.29
		V4.5C20,4.22,19.78,4,19.5,4h-3.79C15.26,4,15.04,4.54,15.35,4.85z M14.83,13.41l-1.41,1.41l3.13,3.13l-1.2,1.2
		C15.04,19.46,15.26,20,15.71,20h3.79c0.28,0,0.5-0.22,0.5-0.5v-3.79c0-0.45-0.54-0.67-0.85-0.35l-1.19,1.19L14.83,13.41z"/>
</g>
</svg>
